img/disc.svg

<svg width="23" height="18" viewBox="0 0 23 18" fill="none" xmlns="http://www.w3.org/2000/svg">
<path d="M19.4895 1.72281C19.4831 1.71044 19.4725 1.70075 19.4596 1.69547C17.9705 1.01247 16.3989 0.525434 14.7844 0.246556C14.7697 0.24383 14.7546 0.245797 14.7411 0.252176C14.7276 0.258555 14.7165 0.269023 14.7093 0.28209C14.4953 0.67034 14.301 1.06914 14.1273 1.47696C12.3869 1.21287 10.6166 1.21287 8.87624 1.47696C8.70131 1.0681 8.50394 0.669205 8.28503 0.28209C8.27753 0.269307 8.26634 0.25908 8.25294 0.252742C8.23953 0.246404 8.22453 0.244249 8.20988 0.246556C6.59518 0.524849 5.02356 1.01192 3.53456 1.69551C3.52182 1.70091 3.51106 1.71014 3.50378 1.72191C0.526088 6.16706 -0.289615 10.5029 0.110541 14.7851C0.111667 14.7956 0.114893 14.8057 0.120026 14.815C0.12516 14.8242 0.132097 14.8323 0.140424 14.8388C1.87431 16.1221 3.81368 17.1017 5.87578 17.7357C5.8903 17.7401 5.9058 17.7399 5.92021 17.7352C5.93462 17.7304 5.94723 17.7214 5.95636 17.7093C6.39926 17.1069 6.79169 16.469 7.12968 15.8021C7.13433 15.793 7.13698 15.783 7.13746 15.7727C7.13795 15.7625 7.13625 15.7522 7.13249 15.7427C7.12873 15.7331 7.12299 15.7245 7.11564 15.7173C7.1083 15.7101 7.09952 15.7046 7.08988 15.7011C6.47103 15.4644 5.87192 15.1791 5.29816 14.8478C5.28774 14.8416 5.27898 14.833 5.27267 14.8227C5.26636 14.8124 5.26268 14.8007 5.26197 14.7887C5.26126 14.7766 5.26352 14.7645 5.26858 14.7536C5.27363 14.7426 5.28131 14.733 5.29093 14.7257C5.41132 14.6355 5.53179 14.5417 5.64675 14.447C5.65697 14.4386 5.66932 14.4332 5.68244 14.4314C5.69555 14.4297 5.7089 14.4316 5.72097 14.437C9.47992 16.1519 13.5495 16.1519 17.2639 14.437C17.276 14.4313 17.2895 14.4291 17.3028 14.4307C17.3161 14.4323 17.3287 14.4376 17.3391 14.4461C17.4541 14.5408 17.5745 14.6355 17.6958 14.7257C17.7055 14.7329 17.7132 14.7424 17.7184 14.7534C17.7235 14.7643 17.7259 14.7764 17.7252 14.7884C17.7246 14.8005 17.721 14.8122 17.7148 14.8226C17.7085 14.8329 17.6999 14.8416 17.6895 14.8478C17.117 15.1818 16.5174 15.467 15.8969 15.7002C15.8873 15.7038 15.8785 15.7095 15.8712 15.7168C15.8639 15.7241 15.8582 15.7328 15.8546 15.7424C15.8509 15.752 15.8493 15.7623 15.8498 15.7726C15.8504 15.7829 15.8531 15.793 15.8578 15.8021C16.2015 16.4653 16.5934 17.1024 17.0303 17.7083C17.0391 17.7207 17.0517 17.73 17.0661 17.7349C17.0806 17.7398 17.0963 17.7401 17.1109 17.7356C19.1766 17.1037 21.1194 16.1241 22.8555 14.8388C22.8639 14.8326 22.871 14.8247 22.8761 14.8156C22.8813 14.8065 22.8844 14.7964 22.8853 14.786C23.3644 9.83536 22.0833 5.53503 19.4895 1.72281ZM7.69105 12.1777C6.55933 12.1777 5.62683 11.1395 5.62683 9.86453C5.62683 8.58953 6.54124 7.55128 7.69105 7.55128C8.84984 7.55128 9.77332 8.59855 9.75523 9.86445C9.75523 11.1395 8.84078 12.1777 7.69105 12.1777ZM15.3231 12.1777C14.1914 12.1777 13.2589 11.1395 13.2589 9.86453C13.2589 8.58953 14.1733 7.55128 15.3231 7.55128C16.4819 7.55128 17.4054 8.59855 17.3873 9.86445C17.3873 11.1395 16.4819 12.1777 15.3231 12.1777Z" fill="white"/>
</svg>

<svg width="23" height="18" fill="none" xmlns="http://www.w3.org/2000/svg"><path d="M19.49 1.723a.059.059 0 00-.03-.028A18.952 18.952 0 0014.784.247a.07.07 0 00-.075.035c-.214.388-.408.787-.582 1.195a17.5 17.5 0 00-5.25 0A12.084 12.084 0 008.284.282.074.074 0 008.21.247a18.9 18.9 0 00-4.675 1.449.067.067 0 00-.031.026C.526 6.167-.29 10.502.11 14.785a.08.08 0 00.03.054 19.052 19.052 0 005.735 2.897.074.074 0 00.08-.027 13.56 13.56 0 001.174-1.907.072.072 0 00-.014-.085.072.072 0 00-.026-.016 12.547 12.547 0 01-1.792-.853.075.075 0 01-.036-.06.073.073 0 01.029-.062c.12-.09.24-.184.356-.279a.072.072 0 01.074-.01c3.759 1.715 7.829 1.715 11.543 0a.071.071 0 01.075.01c.115.094.236.189.357.279a.073.073 0 01-.007.122c-.572.334-1.172.619-1.792.852a.072.072 0 00-.042.042.074.074 0 00.003.06c.343.663.735 1.3 1.172 1.906a.073.073 0 00.08.028 18.99 18.99 0 005.745-2.897.074.074 0 00.03-.053c.48-4.95-.802-9.251-3.396-13.063zM7.69 12.178c-1.132 0-2.064-1.039-2.064-2.313 0-1.275.914-2.314 2.064-2.314 1.159 0 2.082 1.048 2.064 2.313 0 1.275-.914 2.314-2.064 2.314zm7.632 0c-1.132 0-2.064-1.039-2.064-2.313 0-1.275.914-2.314 2.064-2.314 1.159 0 2.082 1.048 2.064 2.313 0 1.275-.905 2.314-2.064 2.314z" fill="#fff"/></svg>
